X:24
T: Der eifersuechtige Knabe
N: D0026
O: Europa, Mitteleuropa, Lothringen, Gebenhausen
N: Inzipit = entfernte Variante zum Lied
R: Ballade, Liebe, Mord aus Eifersucht
M: 6/8
L: 1/16
K: G
d2 | B4B2A4A2 | G6D4
G2 | G2G2A2B2G2A2 | B6-B4
c2 | B2d2d2e2d2c2 | B6A6 |
G6A6 | d3cB2c2B2A2 | G6-G4

@@@ Tune index: 2546
